X:501
T:Bluebell Polka, The 
C:Joe Buchanan's Scottish Tome - Page 476.1
I:476 1
R:Polka
Z:Carl Allison
L:1/4
M:4/4
K:G
((3B/d/g/) | "G"b b "C"g/>f/g/>e/ | "G"d d "Em"B G | "D7"F/>G/A/>B/ "Am"c e | "D7"e/>d/^c/>d/ "G"B ((3B/d/g/) |
"G"b b "C"g/>f/g/>e/ | "G"d d B G | "Am"F/>G/A/>B/ "D7"c/>d/e/>f/ | "G"g g g :|
[K:D]B | "D"A A F/>A/d/>f/ | "D"a a "Bm"f f | "Em"a ^g/a/ "A7"=g e | "A7"b a ^g a |
"D"A A F/>A/d/>f/ | "D"a a "Bm"f f | "Em"a ^g/a/ "A7"=g e | "D"d f d :|
[K:C]"G7"B | e "C"e e/f/ g | "C"e e "Am"e/f/ g | "Dm"f f f/d/ "G7"B | "Dm"f/>e/f/>g/ "G7"f/>d/ B |
"C"e e "C"e/f/ g | "C"e e "A7"e/f/ g | "Dm"f f "G7"f/>d/B/>d/ | "C"c "F"c "C"c :|
W:Errata: Changed the second and third lead-in notes on lines 3 and 5 to 1/4 vs 1/8.

